img/BulatLogo.svg

<svg width="147" height="50" viewBox="0 0 147 50" fill="none" xmlns="http://www.w3.org/2000/svg">
<path d="M67.032 20.288C65.32 20.288 63.768 19.92 62.376 19.184C61 18.432 59.912 17.4 59.112 16.088C58.328 14.76 57.936 13.264 57.936 11.6C57.936 9.936 58.328 8.448 59.112 7.136C59.912 5.808 61 4.776 62.376 4.04C63.768 3.288 65.328 2.912 67.056 2.912C68.512 2.912 69.824 3.168 70.992 3.68C72.176 4.192 73.168 4.928 73.968 5.888L71.472 8.192C70.336 6.88 68.928 6.224 67.248 6.224C66.208 6.224 65.28 6.456 64.464 6.92C63.648 7.368 63.008 8 62.544 8.816C62.096 9.632 61.872 10.56 61.872 11.6C61.872 12.64 62.096 13.568 62.544 14.384C63.008 15.2 63.648 15.84 64.464 16.304C65.28 16.752 66.208 16.976 67.248 16.976C68.928 16.976 70.336 16.312 71.472 14.984L73.968 17.288C73.168 18.264 72.176 19.008 70.992 19.52C69.808 20.032 68.488 20.288 67.032 20.288ZM84.0945 20.288C82.3825 20.288 80.8305 19.92 79.4385 19.184C78.0625 18.432 76.9745 17.4 76.1745 16.088C75.3905 14.76 74.9985 13.264 74.9985 11.6C74.9985 9.936 75.3905 8.448 76.1745 7.136C76.9745 5.808 78.0625 4.776 79.4385 4.04C80.8305 3.288 82.3905 2.912 84.1185 2.912C85.5745 2.912 86.8865 3.168 88.0545 3.68C89.2385 4.192 90.2305 4.928 91.0305 5.888L88.5345 8.192C87.3985 6.88 85.9905 6.224 84.3105 6.224C83.2705 6.224 82.3425 6.456 81.5265 6.92C80.7105 7.368 80.0705 8 79.6065 8.816C79.1585 9.632 78.9345 10.56 78.9345 11.6C78.9345 12.64 79.1585 13.568 79.6065 14.384C80.0705 15.2 80.7105 15.84 81.5265 16.304C82.3425 16.752 83.2705 16.976 84.3105 16.976C85.9905 16.976 87.3985 16.312 88.5345 14.984L91.0305 17.288C90.2305 18.264 89.2385 19.008 88.0545 19.52C86.8705 20.032 85.5505 20.288 84.0945 20.288ZM100.069 13.232H97.3806V20H93.5166V3.2H97.3806V9.992H100.165L104.581 3.2H108.685L103.189 11.312L108.853 20H104.437L100.069 13.232Z" fill="white"/>
<path d="M60.6031 28.201H74.1631V31.297H64.4671V34.753H69.1231C71.1551 34.753 72.6991 35.177 73.7551 36.025C74.8271 36.873 75.3631 38.097 75.3631 39.697C75.3631 41.377 74.7711 42.681 73.5871 43.609C72.4031 44.537 70.7311 45.001 68.5711 45.001H60.6031V28.201ZM68.3551 42.121C69.3471 42.121 70.1071 41.929 70.6351 41.545C71.1631 41.145 71.4271 40.569 71.4271 39.817C71.4271 38.345 70.4031 37.609 68.3551 37.609H64.4671V42.121H68.3551ZM92.8571 28.201L85.7051 41.497C85.0171 42.777 84.1851 43.745 83.2091 44.401C82.2491 45.057 81.2011 45.385 80.0651 45.385C79.1851 45.385 78.2731 45.193 77.3291 44.809L78.2651 41.857C78.9371 42.065 79.4971 42.169 79.9451 42.169C80.4251 42.169 80.8571 42.057 81.2411 41.833C81.6251 41.593 81.9771 41.225 82.2971 40.729L82.4411 40.537L75.8171 28.201H79.9691L84.4331 37.225L89.0411 28.201H92.8571ZM109.399 28.201V45.001H105.559V31.369H99.7994L99.6794 34.873C99.5994 37.257 99.4074 39.193 99.1034 40.681C98.7994 42.153 98.2874 43.289 97.5674 44.089C96.8634 44.873 95.8714 45.265 94.5914 45.265C94.0634 45.265 93.4234 45.177 92.6714 45.001L92.9114 41.713C93.1194 41.777 93.3514 41.809 93.6074 41.809C94.5354 41.809 95.1834 41.265 95.5514 40.177C95.9194 39.073 96.1514 37.353 96.2474 35.017L96.4874 28.201H109.399ZM124.971 41.401H117.171L115.683 45.001H111.699L119.187 28.201H123.027L130.539 45.001H126.459L124.971 41.401ZM123.747 38.449L121.083 32.017L118.419 38.449H123.747ZM144.763 31.369H139.387V45.001H135.547V31.369H130.195V28.201H144.763V31.369Z" fill="white"/>
<path d="M25.2525 50C39.1764 50 50.505 38.7852 50.505 25C50.505 11.2148 39.1764 0 25.2525 0C11.3286 0 0 11.2148 0 25C0 38.7863 11.3286 50 25.2525 50ZM25.2525 4.49247C36.6757 4.49247 45.9684 13.6918 45.9684 25.001C45.9684 36.3103 36.6756 45.5096 25.2525 45.5096C13.8295 45.5096 4.53662 36.3104 4.53662 25.001C4.53662 13.6916 13.8294 4.49247 25.2525 4.49247Z" fill="#FF6000"/>
<path d="M25.2472 39.402C33.6133 39.402 40.4193 32.6627 40.4193 24.3799C40.4193 16.0981 33.6135 9.35889 25.2472 9.35889C16.8809 9.35889 10.0751 16.0981 10.0751 24.3799C10.0751 32.6617 16.881 39.402 25.2472 39.402ZM25.2472 13.8503C31.1105 13.8503 35.8816 18.574 35.8816 24.3799C35.8816 30.187 31.1105 34.9095 25.2472 34.9095C19.3828 34.9095 14.6117 30.1869 14.6117 24.3799C14.6117 18.574 19.3828 13.8503 25.2472 13.8503Z" fill="#FF6000"/>
<path d="M25.2461 28.181C27.4251 28.181 29.1915 26.4322 29.1915 24.275C29.1915 22.1177 27.4251 20.3689 25.2461 20.3689C23.0672 20.3689 21.3008 22.1177 21.3008 24.275C21.3008 26.4322 23.0672 28.181 25.2461 28.181Z" fill="#FF6000"/>
</svg>

<svg width="147" height="50" fill="none" xmlns="http://www.w3.org/2000/svg"><path d="M67.032 20.288c-1.712 0-3.264-.368-4.656-1.104a8.555 8.555 0 01-3.264-3.096c-.784-1.328-1.176-2.824-1.176-4.488 0-1.664.392-3.152 1.176-4.464a8.323 8.323 0 013.264-3.096c1.392-.752 2.952-1.128 4.68-1.128 1.456 0 2.768.256 3.936.768a7.886 7.886 0 012.976 2.208l-2.496 2.304c-1.136-1.312-2.544-1.968-4.224-1.968-1.04 0-1.968.232-2.784.696a4.862 4.862 0 00-1.92 1.896c-.448.816-.672 1.744-.672 2.784 0 1.04.224 1.968.672 2.784a5.03 5.03 0 001.92 1.92c.816.448 1.744.672 2.784.672 1.68 0 3.088-.664 4.224-1.992l2.496 2.304a7.78 7.78 0 01-2.976 2.232c-1.184.512-2.504.768-3.96.768zm17.063 0c-1.713 0-3.264-.368-4.656-1.104a8.555 8.555 0 01-3.264-3.096c-.784-1.328-1.176-2.824-1.176-4.488 0-1.664.392-3.152 1.175-4.464a8.323 8.323 0 013.264-3.096c1.392-.752 2.953-1.128 4.68-1.128 1.457 0 2.769.256 3.937.768a7.886 7.886 0 012.975 2.208l-2.496 2.304C87.398 6.88 85.99 6.224 84.31 6.224c-1.04 0-1.968.232-2.784.696a4.862 4.862 0 00-1.92 1.896c-.447.816-.671 1.744-.671 2.784 0 1.04.224 1.968.671 2.784a5.03 5.03 0 001.92 1.92c.817.448 1.745.672 2.785.672 1.68 0 3.087-.664 4.223-1.992l2.496 2.304a7.78 7.78 0 01-2.975 2.232c-1.184.512-2.505.768-3.96.768zm15.974-7.056h-2.688V20h-3.864V3.2h3.864v6.792h2.784l4.416-6.792h4.104l-5.496 8.112L108.853 20h-4.416l-4.368-6.768zM60.603 28.201h13.56v3.096h-9.696v3.456h4.656c2.032 0 3.576.424 4.632 1.272 1.072.848 1.608 2.072 1.608 3.672 0 1.68-.592 2.984-1.776 3.912-1.184.928-2.856 1.392-5.016 1.392h-7.968v-16.8zm7.752 13.92c.992 0 1.752-.192 2.28-.576.528-.4.792-.976.792-1.728 0-1.472-1.024-2.208-3.072-2.208h-3.888v4.512h3.888zm24.502-13.92l-7.152 13.296c-.688 1.28-1.52 2.248-2.496 2.904a5.458 5.458 0 01-3.144.984c-.88 0-1.792-.192-2.736-.576l.936-2.952c.672.208 1.232.312 1.68.312.48 0 .912-.112 1.296-.336.384-.24.736-.608 1.056-1.104l.144-.192-6.624-12.336h4.152l4.464 9.024 4.608-9.024h3.816zm16.542 0v16.8h-3.84V31.369h-5.76l-.12 3.504c-.08 2.384-.272 4.32-.576 5.808-.304 1.472-.816 2.608-1.536 3.408-.704.784-1.696 1.176-2.976 1.176-.528 0-1.168-.088-1.92-.264l.24-3.288c.208.064.44.096.696.096.928 0 1.576-.544 1.944-1.632.368-1.104.6-2.824.696-5.16l.24-6.816H109.4zm15.572 13.2h-7.8l-1.488 3.6h-3.984l7.488-16.8h3.84l7.512 16.8h-4.08l-1.488-3.6zm-1.224-2.952l-2.664-6.432-2.664 6.432h5.328zm21.016-7.08h-5.376v13.632h-3.84V31.369h-5.352v-3.168h14.568v3.168z" fill="#fff"/><path d="M25.253 50c13.923 0 25.252-11.215 25.252-25S39.176 0 25.252 0C11.33 0 0 11.215 0 25c0 13.786 11.329 25 25.253 25zm0-45.508c11.423 0 20.715 9.2 20.715 20.509 0 11.31-9.292 20.509-20.716 20.509-11.422 0-20.714-9.2-20.714-20.51 0-11.31 9.292-20.509 20.716-20.509z" fill="#FF6000"/><path d="M25.247 39.402c8.366 0 15.172-6.74 15.172-15.022S33.614 9.359 25.247 9.359c-8.366 0-15.172 6.74-15.172 15.02 0 8.283 6.806 15.023 15.172 15.023zm0-25.552c5.863 0 10.635 4.724 10.635 10.53 0 5.807-4.771 10.53-10.635 10.53s-10.635-4.723-10.635-10.53c0-5.806 4.77-10.53 10.635-10.53z" fill="#FF6000"/><path d="M25.246 28.181c2.18 0 3.946-1.749 3.946-3.906s-1.767-3.906-3.946-3.906c-2.179 0-3.945 1.749-3.945 3.906s1.766 3.906 3.945 3.906z" fill="#FF6000"/></svg>
